X:1
T:HRH Princess Alexandra
M:9/8
L:1/8
Q:80
C:S.S. Kelly 1988
S:March
K:HP
|: {g}A3/2d/2fa3{g}a2g | \
{a}f3/2g/2e{Gdc}d3{e}A3 | \
{g}d3/2c/2B{g}A3{g}f2a |
A3/2a/2f{gef}e3{A}e3 | \
{g}A3/2d/2fa3{g}a2g | \
{a}f3/2g/2e{Gdc}d3{e}A3 |
{g}d3/2c/2B{g}A3{g}f2a | \
A3/2f/2e{gde}d3{G}d3 :: \
{g}A3/2d/2fa3{g}a3 |
A3/2d/2f{ag}a3{fg}f3 | \
{g}A3/2d/2fa3{g}a2A | \
{g}A3/2a/2f{gef}e3{A}e2f |
{g}A3/2d/2fa3{g}a2g | \
{a}f3/2g/2e{Gdc}d3{e}A3 | \
{g}d3/2c/2B{g}A3{g}f2a |
A3/2f/2e{gde}d3{G}d3 :|
